X: 13770
T: Forslund
R: slip jig
M: 9/8
K: Gmajor
D|:G2G B2d c2d|ffg d3 B2 d|fga fge dBd|cBG {G} A3-A2 D|
D2 D B2d c2d|ffgd3 B2 d|fga fge dBd|cBG {G} A3-A2 d|
cBG A3- A2 d|c3 cBG A2 d|cAB GAF G3|1 {AB} A F2 G3-G2 D:|2 {AB} A F2G3-G2g||
|:f2a d3 A2 B|c2 d B3{ABA} G2g|f .a2 d3 A2 B|cde- e d2 A2 g|
f2 a d3 A2 B|c d2 e2 f z2 z|[g3c3]- [g3c3]{(gag)}f2 e|1 d2 c (3 (BcB) G A2 g:|
[2 d2 c (3 (BcB) G A2 d|cAB GAF G2 (3 (BcB)|A F2 G3-G2||

